X: 1
T: Klezmer Contra
M: C/2
Q: 1/2=126
S: Daniel Peisach  2002-12-24
L: 1/8
K: Am
|: "Am" E2 A2 ABcA | "E7" B2 B2 E4 | "Am" ABcB ABcd | e2 g2 g2 ag |
"Dm" f2 fg fe df |
|1 "Am" e2 e2 A4 | "E7" B3 A ^G2 A2 | BA^GF EDCB, :|2 "Am" e2 A2 d4 |
"E7" efed "Am" c2 "E7" B2 | "Am" A4 z4 ||
|: "G" G2 Bd g3 f | "C" f2 e2 e4 | "E" E2 ^GB e3 d | "Am" d2 cd edce |
"Dm" d2 de fedf |
|1 "Am" e2 e2 A4 | "E7" B3 A ^G2 A2 | BA^GF E4 :|2 "Am" e2 A2 d4 | "E7"
efed "Am" c2 "E7" B2 | "Am" A4 z4 ||
